icons/op-download-24.svg

<svg width="24" height="24" viewBox="0 0 24 24" fill="none" xmlns="http://www.w3.org/2000/svg">
<path d="M17.7188 19H6.28125V16.8529H17.7188V19ZM6.28125 19H4V14.6765H6.28125V19ZM20 19H17.7188V14.6765H20V19ZM17.7188 9.32353H15.4375V5H8.5625V9.32353H6.28125L12.2188 14.8824L17.7188 9.32353Z" fill="black"/>
</svg>

<svg xmlns="http://www.w3.org/2000/svg" width="24" height="24" viewBox="0 0 24 24"><path d="M17.719 19H6.281v-2.147h11.438V19ZM6.281 19H4v-4.323h2.281V19ZM20 19h-2.281v-4.323H20V19Zm-2.281-9.676h-2.281V5H8.562v4.324H6.281l5.938 5.558 5.5-5.558Z"/></svg>
